svg/downloadcv1.svg

<svg width="140" height="44" viewBox="0 0 140 44" fill="none" xmlns="http://www.w3.org/2000/svg">
							<rect width="140" height="44" rx="4" fill="#2962FF"/>
							<path d="M26 24V26.6667C26 27.0203 25.8595 27.3594 25.6095 27.6095C25.3594 27.8595 25.0203 28 24.6667 28H15.3333C14.9797 28 14.6406 27.8595 14.3905 27.6095C14.1405 27.3594 14 27.0203 14 26.6667V24" stroke="white" stroke-width="1.4" stroke-linecap="round" stroke-linejoin="round"/>
							<path d="M16.6667 20.6667L20.0001 24L23.3334 20.6667" stroke="white" stroke-width="1.4" stroke-linecap="round" stroke-linejoin="round"/>
							<path d="M20 24V16" stroke="white" stroke-width="1.4" stroke-linecap="round" stroke-linejoin="round"/>
							<path d="M40.4545 27C43.5568 27 45.3963 25.081 45.3963 21.8991C45.3963 18.7273 43.5568 16.8182 40.5241 16.8182H37.0043V27H40.4545ZM38.8487 25.4041V18.4141H40.4197C42.4879 18.4141 43.5668 19.5675 43.5668 21.8991C43.5668 24.2408 42.4879 25.4041 40.3651 25.4041H38.8487ZM50.4002 27.1491C52.6374 27.1491 54.0593 25.5732 54.0593 23.2116C54.0593 20.8452 52.6374 19.2642 50.4002 19.2642C48.163 19.2642 46.7411 20.8452 46.7411 23.2116C46.7411 25.5732 48.163 27.1491 50.4002 27.1491ZM50.4102 25.7074C49.1722 25.7074 48.5657 24.6037 48.5657 23.2067C48.5657 21.8097 49.1722 20.6911 50.4102 20.6911C51.6282 20.6911 52.2347 21.8097 52.2347 23.2067C52.2347 24.6037 51.6282 25.7074 50.4102 25.7074ZM56.9577 27H58.837L60.2688 21.8395H60.3732L61.805 27H63.6793L65.842 19.3636H64.0025L62.68 24.7031H62.6055L61.2333 19.3636H59.4187L58.0465 24.733H57.9769L56.6346 19.3636H54.8001L56.9577 27ZM68.8983 22.5256C68.8983 21.4219 69.5645 20.7855 70.514 20.7855C71.4437 20.7855 72.0005 21.397 72.0005 22.4162V27H73.8002V22.1378C73.8052 20.3082 72.7612 19.2642 71.1852 19.2642C70.0417 19.2642 69.2562 19.8111 68.9082 20.6612H68.8187V19.3636H67.0985V27H68.8983V22.5256ZM77.4295 16.8182H75.6298V27H77.4295V16.8182ZM82.6112 27.1491C84.8484 27.1491 86.2702 25.5732 86.2702 23.2116C86.2702 20.8452 84.8484 19.2642 82.6112 19.2642C80.3739 19.2642 78.9521 20.8452 78.9521 23.2116C78.9521 25.5732 80.3739 27.1491 82.6112 27.1491ZM82.6211 25.7074C81.3832 25.7074 80.7766 24.6037 80.7766 23.2067C80.7766 21.8097 81.3832 20.6911 82.6211 20.6911C83.8391 20.6911 84.4457 21.8097 84.4457 23.2067C84.4457 24.6037 83.8391 25.7074 82.6211 25.7074ZM89.9952 27.1541C91.1934 27.1541 91.9093 26.5923 92.2374 25.951H92.2971V27H94.0272V21.8892C94.0272 19.8707 92.3816 19.2642 90.9249 19.2642C89.3191 19.2642 88.0861 19.9801 87.6884 21.3722L89.3688 21.6108C89.5478 21.0888 90.0549 20.6413 90.9348 20.6413C91.7701 20.6413 92.2275 21.0689 92.2275 21.8196V21.8494C92.2275 22.3665 91.6855 22.3913 90.3382 22.5355C88.8567 22.6946 87.4398 23.1371 87.4398 24.8572C87.4398 26.3587 88.5385 27.1541 89.9952 27.1541ZM90.4625 25.8317C89.7118 25.8317 89.1749 25.4886 89.1749 24.8274C89.1749 24.1364 89.7765 23.848 90.5819 23.7337C91.0542 23.669 91.9988 23.5497 92.2324 23.3608V24.2607C92.2324 25.1108 91.5463 25.8317 90.4625 25.8317ZM98.6706 27.1342C99.9831 27.1342 100.575 26.3537 100.858 25.7969H100.968V27H102.737V16.8182H100.933V20.6264H100.858C100.585 20.0746 100.023 19.2642 98.6756 19.2642C96.9107 19.2642 95.5236 20.6463 95.5236 23.1918C95.5236 25.7074 96.8709 27.1342 98.6706 27.1342ZM99.1728 25.6577C97.9846 25.6577 97.3581 24.6136 97.3581 23.1818C97.3581 21.7599 97.9746 20.7408 99.1728 20.7408C100.331 20.7408 100.968 21.7003 100.968 23.1818C100.968 24.6634 100.321 25.6577 99.1728 25.6577ZM116.923 20.2536C116.609 17.9915 114.869 16.679 112.612 16.679C109.952 16.679 107.949 18.6179 107.949 21.9091C107.949 25.1953 109.928 27.1392 112.612 27.1392C115.033 27.1392 116.639 25.5732 116.923 23.6293L115.063 23.6193C114.83 24.8125 113.855 25.4837 112.637 25.4837C110.987 25.4837 109.803 24.2457 109.803 21.9091C109.803 19.6122 110.977 18.3345 112.642 18.3345C113.88 18.3345 114.849 19.0355 115.063 20.2536H116.923ZM119.974 16.8182H117.95L121.535 27H123.812L127.401 16.8182H125.373L122.728 24.8324H122.624L119.974 16.8182Z" fill="white"/>
							</svg>

<?xml version="1.0" encoding="utf-8"?>
<!-- Generator: Adobe Illustrator 26.0.1, SVG Export Plug-In . SVG Version: 6.00 Build 0)  -->
<svg version="1.1" id="Layer_1" xmlns="http://www.w3.org/2000/svg" xmlns:xlink="http://www.w3.org/1999/xlink" x="0px" y="0px"
	 viewBox="0 0 140 44" style="enable-background:new 0 0 140 44;" xml:space="preserve">
<style type="text/css">
	.st0{fill:#00B96B;}
	.st1{fill:none;stroke:#FFFFFF;stroke-width:1.4;stroke-linecap:round;stroke-linejoin:round;}
	.st2{fill:#FFFFFF;}
</style>
<path class="st0" d="M4,0h132c2.2,0,4,1.8,4,4v36c0,2.2-1.8,4-4,4H4c-2.2,0-4-1.8-4-4V4C0,1.8,1.8,0,4,0z"/>
<path class="st1" d="M26,24v2.7c0,0.4-0.1,0.7-0.4,0.9C25.4,27.9,25,28,24.7,28h-9.3c-0.4,0-0.7-0.1-0.9-0.4
	C14.1,27.4,14,27,14,26.7V24"/>
<path class="st1" d="M16.7,20.7L20,24l3.3-3.3"/>
<path class="st1" d="M20,24v-8"/>
<path class="st2" d="M40.5,27c3.1,0,4.9-1.9,4.9-5.1c0-3.2-1.8-5.1-4.9-5.1H37V27H40.5z M38.8,25.4v-7h1.6c2.1,0,3.1,1.2,3.1,3.5
	c0,2.3-1.1,3.5-3.2,3.5H38.8z M50.4,27.1c2.2,0,3.7-1.6,3.7-3.9c0-2.4-1.4-3.9-3.7-3.9s-3.7,1.6-3.7,3.9
	C46.7,25.6,48.2,27.1,50.4,27.1z M50.4,25.7c-1.2,0-1.8-1.1-1.8-2.5c0-1.4,0.6-2.5,1.8-2.5c1.2,0,1.8,1.1,1.8,2.5
	C52.2,24.6,51.6,25.7,50.4,25.7z M57,27h1.9l1.4-5.2h0.1l1.4,5.2h1.9l2.2-7.6H64l-1.3,5.3h-0.1l-1.4-5.3h-1.8L58,24.7H58l-1.3-5.4
	h-1.8L57,27z M68.9,22.5c0-1.1,0.7-1.7,1.6-1.7c0.9,0,1.5,0.6,1.5,1.6V27h1.8v-4.9c0-1.8-1-2.9-2.6-2.9c-1.1,0-1.9,0.5-2.3,1.4h-0.1
	v-1.3h-1.7V27h1.8V22.5z M77.4,16.8h-1.8V27h1.8V16.8z M82.6,27.1c2.2,0,3.7-1.6,3.7-3.9c0-2.4-1.4-3.9-3.7-3.9
	c-2.2,0-3.7,1.6-3.7,3.9C79,25.6,80.4,27.1,82.6,27.1z M82.6,25.7c-1.2,0-1.8-1.1-1.8-2.5c0-1.4,0.6-2.5,1.8-2.5
	c1.2,0,1.8,1.1,1.8,2.5C84.4,24.6,83.8,25.7,82.6,25.7z M90,27.2c1.2,0,1.9-0.6,2.2-1.2h0.1v1H94v-5.1c0-2-1.6-2.6-3.1-2.6
	c-1.6,0-2.8,0.7-3.2,2.1l1.7,0.2c0.2-0.5,0.7-1,1.6-1c0.8,0,1.3,0.4,1.3,1.2v0c0,0.5-0.5,0.5-1.9,0.7c-1.5,0.2-2.9,0.6-2.9,2.3
	C87.4,26.4,88.5,27.2,90,27.2z M90.5,25.8c-0.8,0-1.3-0.3-1.3-1c0-0.7,0.6-1,1.4-1.1c0.5-0.1,1.4-0.2,1.7-0.4v0.9
	C92.2,25.1,91.5,25.8,90.5,25.8z M98.7,27.1c1.3,0,1.9-0.8,2.2-1.3h0.1V27h1.8V16.8h-1.8v3.8h-0.1c-0.3-0.6-0.8-1.4-2.2-1.4
	c-1.8,0-3.2,1.4-3.2,3.9C95.5,25.7,96.9,27.1,98.7,27.1z M99.2,25.7c-1.2,0-1.8-1-1.8-2.5c0-1.4,0.6-2.4,1.8-2.4
	c1.2,0,1.8,1,1.8,2.4C101,24.7,100.3,25.7,99.2,25.7z M116.9,20.3c-0.3-2.3-2.1-3.6-4.3-3.6c-2.7,0-4.7,1.9-4.7,5.2
	c0,3.3,2,5.2,4.7,5.2c2.4,0,4-1.6,4.3-3.5l-1.9,0c-0.2,1.2-1.2,1.9-2.4,1.9c-1.7,0-2.8-1.2-2.8-3.6c0-2.3,1.2-3.6,2.8-3.6
	c1.2,0,2.2,0.7,2.4,1.9H116.9z M120,16.8h-2l3.6,10.2h2.3l3.6-10.2h-2l-2.6,8h-0.1L120,16.8z"/>
</svg>
